X: 2006
T: Goosey Boy
C:Earl Jones
B: steve tunes
M:C
L:1/16
Q: 1/4=100
K:G
V:1 
Bc | "G" [G,2D2d2]d2 g2d2 | e2d2 B2d2 | "C" cdcB A2G2 | "C"E2G2 "D7" D2 Bc |
 "G" [G,2D2d2]d2 g2d2 | e2d2 B2d2 | "C" cdcB A2G2 | "D7" (3FGF D2 (3cdc A2 |
 "G" [G,DB][G,2D2d2] d g2d2 | e2d2 B2d2 | "C" cdcB A2G2 |"C"E2G2 "D7" D2 Bc |
 "G" [G,2D2d2]d2 g2d2 | e2d2 B2d2 | "C" cdcB A2G2 | "D" JA4 A4 ||
|: "D"[D3A3]B A2G2 | "C"E2G2 "D"D2 AB | "C"cdcB A2G2 | "C"(3EFE C2 "D"D4 | "D"[D3A3] B A2G2 |
"C"E2G2 "D"D2 AB | "C"cdcB A2G2 | [1"D"FEDE yF2G2:| [2"D"A2B2 c2 ||
% abcbook-tune_id 6298c25d31166658e6771edc


% abcbook-boost 4
% abcbook-tablature 
% abcbook-transpose 
% abcbook-lastupdated 1655260264380
% abcbook-soundfonts 
% abcbook-repeats 3


